components/ui-node-icon/src/nest/nest.small.svg

<svg width="16" height="16" viewBox="0 0 16 16" fill="none" xmlns="http://www.w3.org/2000/svg">
  <path fill-rule="evenodd" clip-rule="evenodd" d="M5 3C3.61929 3 2.5 4.11929 2.5 5.5V6.58579C2.5 6.71839 2.44732 6.84557 2.35355 6.93934L1.14645 8.14645C0.951184 8.34171 0.951184 8.65829 1.14645 8.85355L2.35355 10.0607C2.44732 10.1544 2.5 10.2816 2.5 10.4142V11.5C2.5 12.8807 3.61929 14 5 14H6C6.27614 14 6.5 13.7761 6.5 13.5C6.5 13.2239 6.27614 13 6 13H5C4.17157 13 3.5 12.3284 3.5 11.5V10.4142C3.5 10.0164 3.34196 9.63486 3.06066 9.35355L2.20711 8.5L3.06066 7.64645C3.34196 7.36514 3.5 6.98361 3.5 6.58579V5.5C3.5 4.67157 4.17157 4 5 4H6C6.27614 4 6.5 3.77614 6.5 3.5C6.5 3.22386 6.27614 3 6 3H5ZM11 3C12.3807 3 13.5 4.11929 13.5 5.5V6.58579C13.5 6.71839 13.5527 6.84557 13.6464 6.93934L14.8536 8.14645C15.0488 8.34171 15.0488 8.65829 14.8536 8.85355L13.6464 10.0607C13.5527 10.1544 13.5 10.2816 13.5 10.4142V11.5C13.5 12.8807 12.3807 14 11 14H10C9.72386 14 9.5 13.7761 9.5 13.5C9.5 13.2239 9.72386 13 10 13H11C11.8284 13 12.5 12.3284 12.5 11.5V10.4142C12.5 10.0164 12.658 9.63486 12.9393 9.35355L13.7929 8.5L12.9393 7.64645C12.658 7.36514 12.5 6.98361 12.5 6.58579V5.5C12.5 4.67157 11.8284 4 11 4H10C9.72386 4 9.5 3.77614 9.5 3.5C9.5 3.22386 9.72386 3 10 3H11Z" fill="currentColor"/>
</svg>

<svg xmlns="http://www.w3.org/2000/svg" width="16" height="16" fill="none" viewBox="0 0 16 16">
  <path fill="currentColor" fill-rule="evenodd" d="M5 3a2.5 2.5 0 0 0-2.5 2.5v1.086a.5.5 0 0 1-.146.353L1.146 8.146a.5.5 0 0 0 0 .708l1.208 1.207a.5.5 0 0 1 .146.353V11.5A2.5 2.5 0 0 0 5 14h1a.5.5 0 0 0 0-1H5a1.5 1.5 0 0 1-1.5-1.5v-1.086a1.5 1.5 0 0 0-.44-1.06L2.208 8.5l.854-.854a1.5 1.5 0 0 0 .439-1.06V5.5A1.5 1.5 0 0 1 5 4h1a.5.5 0 0 0 0-1H5Zm6 0a2.5 2.5 0 0 1 2.5 2.5v1.086a.5.5 0 0 0 .146.353l1.208 1.207a.5.5 0 0 1 0 .708l-1.208 1.207a.5.5 0 0 0-.146.353V11.5A2.5 2.5 0 0 1 11 14h-1a.5.5 0 0 1 0-1h1a1.5 1.5 0 0 0 1.5-1.5v-1.086c0-.398.158-.78.44-1.06l.853-.854-.854-.854a1.5 1.5 0 0 1-.439-1.06V5.5A1.5 1.5 0 0 0 11 4h-1a.5.5 0 0 1 0-1h1Z" clip-rule="evenodd"/>
</svg>
